public/images/linkedin_logo.svg

<?xml version="1.0" encoding="UTF-8" standalone="no"?>
<svg
   version="1.1"
   id="Layer_1"
   x="0px"
   y="0px"
   width="538"
   viewBox="0 0 538 537"
   enable-background="new 0 0 635 540"
   xml:space="preserve"
   sodipodi:docname="linkedin_logo.svg"
   inkscape:version="1.3.2 (091e20ef0f, 2023-11-25, custom)"
   height="537"
   xmlns:inkscape="http://www.inkscape.org/namespaces/inkscape"
   xmlns:sodipodi="http://sodipodi.sourceforge.net/DTD/sodipodi-0.dtd"
   xmlns="http://www.w3.org/2000/svg"
   xmlns:svg="http://www.w3.org/2000/svg"><defs
   id="defs3" /><sodipodi:namedview
   id="namedview3"
   pagecolor="#ffffff"
   bordercolor="#000000"
   borderopacity="0.25"
   inkscape:showpageshadow="2"
   inkscape:pageopacity="0.0"
   inkscape:pagecheckerboard="0"
   inkscape:deskcolor="#d1d1d1"
   inkscape:zoom="1.4888889"
   inkscape:cx="317.68656"
   inkscape:cy="263.95522"
   inkscape:window-width="1920"
   inkscape:window-height="1008"
   inkscape:window-x="0"
   inkscape:window-y="0"
   inkscape:window-maximized="1"
   inkscape:current-layer="Layer_1" />
<path
   fill="#2867b2"
   opacity="1"
   stroke="none"
   d="M 1.000001,507 C 1,348.64258 1,190.28519 1.348588,31.35269 4.564389,25.58452 6.927793,20.020687 10.414048,15.283136 15.978903,7.720929 24.168917,3.711784 33,1 c 157.35741,0 314.71481,0 472.68881,0.355003 17.51633,3.4129 32.31339,19.378508 32.31296,39.856575 -0.003,147.983272 0.0107,295.966552 -0.044,443.949802 -0.002,6.42569 -0.41369,12.87024 -0.99627,19.27304 -1.50318,16.51864 -19.21704,32.55838 -35.82599,32.55948 -154.31589,0.0103 -308.63182,0.0526 -462.947607,-0.0752 C 24.657312,536.90753 14.719544,529.57941 7.367126,518.68323 4.897429,515.02313 3.103041,510.90744 1.000001,507 M 211,298.5 c 0,52.74387 0,105.48776 0,158.11871 26.38994,0 52.10797,0 78,0 0,-2.20489 0,-4.03033 0,-5.85577 0,-40.98889 -0.17798,-81.97913 0.13754,-122.96558 0.0702,-9.12076 1.2305,-18.35852 3.03452,-27.31155 2.81424,-13.96652 9.30243,-25.66589 23.36578,-31.64163 9.03928,-3.84098 18.53641,-4.63623 28.02655,-3.70688 12.5831,1.23218 22.61728,7.04053 28.45023,18.87655 4.86682,9.87565 6.79168,20.53476 6.86126,31.28522 0.29331,45.31915 0.12412,90.6413 0.12412,135.96234 0,1.77909 0,3.55817 0,5.42676 26.24963,0 51.9668,0 77.85275,0 0.059,-1.11084 0.13175,-1.91992 0.14063,-2.7297 0.33914,-30.9242 1.02853,-61.85001 0.89383,-92.77222 -0.10755,-24.69342 -1.21225,-49.3826 -1.88852,-74.0733 -0.35163,-12.83811 -3.15726,-25.27073 -7.15442,-37.35599 -7.62592,-23.05673 -22.48813,-39.76331 -45.79672,-47.4805 -9.16916,-3.03578 -19.13028,-3.74039 -28.76456,-5.29729 -17.13477,-2.769 -33.58429,-0.28584 -49.28171,7.03836 -14.41962,6.72801 -26.2944,16.42925 -34.72629,30.11374 -0.78018,1.26619 -2.17196,2.15552 -4.36526,4.26279 0,-12.79186 0,-23.8873 0,-35.08811 -25.1471,0 -49.86441,0 -74.90973,0 0,31.60122 0,62.89763 0,95.19405 m -51,60 c 0,-51.74829 0,-103.49661 0,-155.10913 -26.40527,0 -52.12544,0 -77.746719,0 0,84.6524 0,168.9137 0,253.30664 25.973349,0 51.692459,0 77.746719,0 0,-32.60004 0,-64.89877 0,-98.19751 M 158.53323,96.005035 c -0.28688,-0.583953 -0.4646,-1.262466 -0.8766,-1.738029 -10.00181,-11.545189 -21.76317,-18.883759 -37.91471,-18.443169 -12.63264,0.34459 -23.253532,5.070954 -31.412651,13.757256 -9.202301,9.796905 -14.030334,21.817957 -12.480949,36.026157 1.153015,10.57341 5.188438,19.66207 12.414726,26.90918 10.03344,10.06235 22.217584,15.17147 36.981014,13.61119 11.26062,-1.19007 21.0264,-5.5047 28.42711,-13.56379 14.28768,-15.55881 17.25547,-37.40907 4.86206,-56.558795 z"
   id="path1" />


<path
   style="fill:#ffffff;stroke-width:0.671642"
   d="M 113.33775,165.52838 C 104.59423,163.96752 97.344518,160.21696 90.236754,153.5773 82.200912,146.0707 77.351666,136.2151 76.356824,125.36778 75.059987,111.22763 79.280022,99.536271 89.344839,89.385249 97.666971,80.991838 106.57251,76.99225 118.26838,76.395324 c 13.17094,-0.672209 23.54405,3.266982 33.55384,12.742086 4.8925,4.631161 6.18442,6.340151 8.72725,11.54474 3.87393,7.92906 5.22027,13.34681 5.19,20.88501 -0.0297,7.40214 -1.45608,13.1333 -4.93115,19.81344 -4.72465,9.0822 -11.27928,15.69522 -19.86277,20.03973 -6.96495,3.52529 -20.00383,5.46548 -27.6078,4.10805 z"
   id="path4" /><path
   style="fill:#ffffff;stroke-width:0.671642"
   d="M 82.276119,330.11194 V 203.84328 h 38.619401 38.61941 V 330.11194 456.3806 H 120.89552 82.276119 Z"
   id="path5" /><path
   style="fill:#ffffff;stroke-width:0.671642"
   d="M 211.23134,330.11194 V 203.84328 h 37.27612 37.27612 v 17.57977 17.57976 l 1.74761,-1.62827 c 0.96119,-0.89555 3.81617,-4.37409 6.34441,-7.7301 15.57973,-20.68066 40.63563,-33.18922 66.48135,-33.18922 9.8402,0 33.07834,3.27144 41.14487,5.79232 14.91728,4.66182 27.43829,13.64574 36.07492,25.884 6.03813,8.55614 10.01423,17.54234 13.43735,30.36908 4.22153,15.81852 4.62227,20.81934 6.06154,75.64117 0.69507,26.4758 0.40835,102.20851 -0.43928,116.02612 l -0.38111,6.21269 h -38.55672 -38.55673 l -0.003,-73.71269 c -0.002,-61.50159 -0.16557,-74.71405 -0.98584,-79.75746 -1.94418,-11.95366 -5.89395,-21.14607 -11.79776,-27.45726 -7.36248,-7.87052 -15.31393,-10.71565 -29.86295,-10.68535 -14.48753,0.0302 -24.56044,3.6185 -32.59861,11.61276 -6.92184,6.88403 -10.38761,14.53226 -12.76819,28.17677 -2.27752,13.05389 -2.62741,24.91127 -2.64175,89.52845 l -0.0138,62.29478 h -38.6194 -38.61941 z"
   id="path6" /></svg>

<?xml version="1.0" encoding="UTF-8" standalone="no"?>
<svg
   version="1.1"
   id="Layer_1"
   x="0px"
   y="0px"
   width="100%"
   viewBox="0 0 635 540"
   enable-background="new 0 0 635 540"
   xml:space="preserve"
   sodipodi:docname="linkedin_logo.svg"
   inkscape:version="1.3.2 (091e20ef0f, 2023-11-25, custom)"
   xmlns:inkscape="http://www.inkscape.org/namespaces/inkscape"
   xmlns:sodipodi="http://sodipodi.sourceforge.net/DTD/sodipodi-0.dtd"
   xmlns="http://www.w3.org/2000/svg"
   xmlns:svg="http://www.w3.org/2000/svg"><defs
   id="defs3" /><sodipodi:namedview
   id="namedview3"
   pagecolor="#ffffff"
   bordercolor="#000000"
   borderopacity="0.25"
   inkscape:showpageshadow="2"
   inkscape:pageopacity="0.0"
   inkscape:pagecheckerboard="0"
   inkscape:deskcolor="#d1d1d1"
   inkscape:zoom="1.4888889"
   inkscape:cx="317.68657"
   inkscape:cy="270"
   inkscape:window-width="1920"
   inkscape:window-height="1008"
   inkscape:window-x="0"
   inkscape:window-y="0"
   inkscape:window-maximized="1"
   inkscape:current-layer="Layer_1" />
<path
   fill="#2867B2"
   opacity="1.000000"
   stroke="none"
   d=" M1.000001,507.000000   C1.000000,348.642578 1.000000,190.285187 1.348588,31.352690   C4.564389,25.584520 6.927793,20.020687 10.414048,15.283136   C15.978903,7.720929 24.168917,3.711784 33.000000,1.000000   C190.357407,1.000000 347.714813,1.000000 505.688812,1.355003   C523.205139,4.767903 538.002197,20.733511 538.001770,41.211578   C537.998413,189.194855 538.012512,337.178131 537.957764,485.161377   C537.955383,491.587067 537.544067,498.031616 536.961487,504.434418   C535.458313,520.953064 517.744446,536.992798 501.135498,536.993896   C346.819611,537.004211 192.503677,537.046509 38.187893,536.918701   C24.657312,536.907532 14.719544,529.579407 7.367126,518.683228   C4.897429,515.023132 3.103041,510.907440 1.000001,507.000000  M211.000000,298.500000   C211.000000,351.243866 211.000000,403.987762 211.000000,456.618713   C237.389938,456.618713 263.107971,456.618713 289.000000,456.618713   C289.000000,454.413818 289.000000,452.588379 289.000000,450.762939   C289.000000,409.774048 288.822021,368.783813 289.137543,327.797363   C289.207733,318.676605 290.368042,309.438843 292.172058,300.485809   C294.986298,286.519287 301.474487,274.819916 315.537842,268.844177   C324.577118,265.003204 334.074249,264.207947 343.564392,265.137299   C356.147491,266.369476 366.181671,272.177826 372.014618,284.013855   C376.881439,293.889496 378.806305,304.548615 378.875885,315.299072   C379.169189,360.618225 379.000000,405.940369 379.000000,451.261414   C379.000000,453.040497 379.000000,454.819580 379.000000,456.688171   C405.249634,456.688171 430.966797,456.688171 456.852753,456.688171   C456.911743,455.577332 456.984497,454.768250 456.993378,453.958466   C457.332520,423.034271 458.021912,392.108459 457.887207,361.186249   C457.779663,336.492828 456.674957,311.803650 455.998688,287.112946   C455.647064,274.274841 452.841431,261.842224 448.844269,249.756958   C441.218353,226.700226 426.356140,209.993652 403.047546,202.276459   C393.878387,199.240677 383.917267,198.536072 374.282990,196.979172   C357.148224,194.210175 340.698700,196.693329 325.001282,204.017532   C310.581665,210.745544 298.706879,220.446777 290.274994,234.131271   C289.494812,235.397461 288.103027,236.286789 285.909729,238.394058   C285.909729,225.602203 285.909729,214.506760 285.909729,203.305954   C260.762634,203.305954 236.045319,203.305954 211.000000,203.305954   C211.000000,234.907166 211.000000,266.203583 211.000000,298.500000  M160.000000,358.500000   C160.000000,306.751709 160.000000,255.003387 160.000000,203.390869   C133.594727,203.390869 107.874557,203.390869 82.253281,203.390869   C82.253281,288.043274 82.253281,372.304565 82.253281,456.697510   C108.226631,456.697510 133.945740,456.697510 160.000000,456.697510   C160.000000,424.097473 160.000000,391.798737 160.000000,358.500000  M158.533234,96.005035   C158.246353,95.421082 158.068634,94.742569 157.656631,94.267006   C147.654816,82.721817 135.893463,75.383247 119.741920,75.823837   C107.109276,76.168427 96.488388,80.894791 88.329269,89.581093   C79.126968,99.377998 74.298935,111.399048 75.848320,125.607254   C77.001335,136.180664 81.036758,145.269318 88.263046,152.516434   C98.296486,162.578781 110.480629,167.687897 125.244064,166.127625   C136.504684,164.937546 146.270462,160.622925 153.671173,152.563828   C167.958847,137.005020 170.926636,115.154762 158.533234,96.005035  z"
   id="path1" />
<path
   fill="#2867B2"
   opacity="1.000000"
   stroke="none"
   d=" M592.463196,541.000000   C586.315430,538.157471 580.390381,535.704590 575.003174,532.380188   C567.137024,527.526123 563.767456,519.488281 562.052795,510.842377   C557.901978,489.912506 571.411316,470.752350 591.511780,467.360840   C610.225708,464.203217 628.415527,473.403992 634.034912,493.554871   C634.338806,494.644592 634.876343,495.669159 635.652588,496.862000   C636.000000,501.689240 636.000000,506.378510 635.649170,511.647217   C634.872559,512.900024 634.257019,513.520020 634.050354,514.254944   C631.980042,521.617920 628.364624,528.163940 621.944824,532.350769   C616.662842,535.795471 610.675049,538.157959 605.000000,541.000000   C600.975464,541.000000 596.950928,541.000000 592.463196,541.000000  M575.487793,525.990173   C583.894043,533.099731 593.027527,537.614746 604.536682,535.036804   C618.387512,531.934204 627.795349,522.463806 629.801758,509.160156   C633.518738,484.514984 611.311707,467.664429 590.581909,472.955811   C577.437134,476.311035 567.277283,489.021362 566.901978,502.507568   C566.655457,511.365387 569.559021,518.775330 575.487793,525.990173  z"
   id="path2" />
<path
   fill="#2867B2"
   opacity="1.000000"
   stroke="none"
   d=" M591.056030,508.391235   C591.015015,513.660461 591.015015,518.468750 591.015015,523.751343   C589.071838,523.846497 587.349243,523.930847 585.305542,524.030884   C585.305542,510.711731 585.305542,497.660339 585.305542,484.025757   C592.075439,484.025757 599.034912,483.011505 605.531616,484.310852   C612.037292,485.612000 614.589600,487.302979 614.030457,497.353668   C613.762390,502.170349 610.281921,505.616730 604.357056,506.386292   C607.990051,511.975616 611.594421,517.520996 615.429871,523.421753   C610.607666,524.797302 607.414917,524.001099 605.260254,519.732971   C603.583496,516.411621 601.458313,513.317688 599.551514,510.111328   C597.448975,506.575836 594.636475,505.861084 591.056030,508.391235  M604.785217,490.315704   C600.340515,489.735748 595.895813,489.155762 591.328125,488.559753   C591.328125,493.307526 591.328125,497.020691 591.328125,500.999603   C594.619019,500.999603 597.691650,501.476044 600.522827,500.853729   C602.926514,500.325378 605.782471,499.011383 607.032837,497.117218   C607.816040,495.930725 605.998352,493.027313 604.785217,490.315704  z"
   id="path3" />
<path
   style="fill:#ffffff;stroke-width:0.671642"
   d="M 113.33775,165.52838 C 104.59423,163.96752 97.344518,160.21696 90.236754,153.5773 82.200912,146.0707 77.351666,136.2151 76.356824,125.36778 75.059987,111.22763 79.280022,99.536271 89.344839,89.385249 97.666971,80.991838 106.57251,76.99225 118.26838,76.395324 c 13.17094,-0.672209 23.54405,3.266982 33.55384,12.742086 4.8925,4.631161 6.18442,6.340151 8.72725,11.54474 3.87393,7.92906 5.22027,13.34681 5.19,20.88501 -0.0297,7.40214 -1.45608,13.1333 -4.93115,19.81344 -4.72465,9.0822 -11.27928,15.69522 -19.86277,20.03973 -6.96495,3.52529 -20.00383,5.46548 -27.6078,4.10805 z"
   id="path4" /><path
   style="fill:#ffffff;stroke-width:0.671642"
   d="M 82.276119,330.11194 V 203.84328 h 38.619401 38.61941 V 330.11194 456.3806 H 120.89552 82.276119 Z"
   id="path5" /><path
   style="fill:#ffffff;stroke-width:0.671642"
   d="M 211.23134,330.11194 V 203.84328 h 37.27612 37.27612 v 17.57977 17.57976 l 1.74761,-1.62827 c 0.96119,-0.89555 3.81617,-4.37409 6.34441,-7.7301 15.57973,-20.68066 40.63563,-33.18922 66.48135,-33.18922 9.8402,0 33.07834,3.27144 41.14487,5.79232 14.91728,4.66182 27.43829,13.64574 36.07492,25.884 6.03813,8.55614 10.01423,17.54234 13.43735,30.36908 4.22153,15.81852 4.62227,20.81934 6.06154,75.64117 0.69507,26.4758 0.40835,102.20851 -0.43928,116.02612 l -0.38111,6.21269 h -38.55672 -38.55673 l -0.003,-73.71269 c -0.002,-61.50159 -0.16557,-74.71405 -0.98584,-79.75746 -1.94418,-11.95366 -5.89395,-21.14607 -11.79776,-27.45726 -7.36248,-7.87052 -15.31393,-10.71565 -29.86295,-10.68535 -14.48753,0.0302 -24.56044,3.6185 -32.59861,11.61276 -6.92184,6.88403 -10.38761,14.53226 -12.76819,28.17677 -2.27752,13.05389 -2.62741,24.91127 -2.64175,89.52845 l -0.0138,62.29478 h -38.6194 -38.61941 z"
   id="path6" /><path
   style="fill:#ffffff;stroke-width:0.671642"
   d="m 592.38806,534.6622 c -8.14953,-2.08187 -15.5131,-6.92789 -19.20385,-12.63819 -8.57745,-13.27099 -7.65441,-28.11035 2.44742,-39.34602 16.06232,-17.86516 45.57492,-11.20885 52.71336,11.88903 2.2874,7.40135 1.45778,17.42198 -2.00422,24.20804 -3.73958,7.3302 -12.91611,13.94369 -22.02619,15.8742 -5.41553,1.1476 -7.47611,1.14984 -11.92652,0.0129 z m -1.00746,-18.03533 c 0,-8.21336 0.36865,-9.2015 3.43283,-9.2015 2.228,0 3.93907,1.92878 8.28046,9.33401 1.76202,3.00553 3.84371,5.91289 4.62598,6.46082 1.57683,1.10445 6.86515,1.35827 7.48265,0.35914 0.21656,-0.3504 -1.88128,-4.14111 -4.66185,-8.42381 -2.78058,-4.28269 -5.0556,-7.91097 -5.0556,-8.06283 0,-0.15186 1.35202,-0.87417 3.00448,-1.60513 4.61862,-2.04304 5.83879,-4.5265 5.59227,-11.38223 -0.19088,-5.30849 -0.30917,-5.6926 -2.30137,-7.47262 -3.27721,-2.92817 -12.23162,-4.0792 -22.9879,-2.95495 l -4.12837,0.4315 v 20.05357 20.05358 h 3.35821 3.35821 z"
   id="path7" /></svg>
